X: 2311
T: the COCK O' THE NORTH
R: Scotch Jig.
%R: jig
B: James Kerr "Merry Melodies" v.2 p.34 #311
Z: 2016 John Chambers <jc:trillian.mit.edu>
M: 6/8
L: 1/8
K: G
|:\
vBcB BAG | Bcd ue2ud | BcB BAG | A3 (d2c) |\
BcB BAG | Bcd ue2ud | BdB AGA |[1 G3 (d2c) :|[2 GBc def |]
|:\
g2d e2d | dgd e2d | ege dBG | A3 (d2c) |\
BcB BAG | Bcd e2d | BdB AGA |[1 GBc def :|[2 G3 (d2c) |]
